64x64/apps/manuskript.svg

<svg height="64" width="64" xmlns="http://www.w3.org/2000/svg"><circle cx="32" cy="31" opacity=".2" r="26"/><circle cx="32" cy="30" fill="#949494" r="26"/><path d="m32 4a26 26 0 0 0 -26 26 26 26 0 0 0 .018.486 26 26 0 0 1 25.982-25.486 26 26 0 0 1 25.975 25.496 26 26 0 0 0 .025-.496 26 26 0 0 0 -26-26z" fill="#f4f4f7" opacity=".2"/><path d="m8 63c5.535-46.22 40.813-55.319 50.455-60-7.209 22.363-18.898 38.31-43.362 46.077 8.563-16.36 21.68-27.247 36.035-38.426-12.287 10.428-24.58 20.848-32.593 36.05 11.445-3.819 34.729-25.712 26.955-26.188 2.649-.286 5.807-2.231 8.731-13.144-8.915 3.268-35.219 15.41-46.221 55.631z" opacity=".1"/><path d="m8 62c5.535-46.22 40.813-55.319 50.455-60-7.209 22.363-18.898 38.31-43.362 46.077 8.563-16.36 21.68-27.247 36.035-38.426-12.287 10.428-24.58 20.848-32.593 36.05 11.445-3.819 34.729-25.712 26.955-26.188 2.649-.286 5.807-2.231 8.731-13.144-8.915 3.268-35.219 15.41-46.221 55.631z" fill="#17191e"/></svg>

<svg height="64" width="64" xmlns="http://www.w3.org/2000/svg">
    <circle cx="32" cy="31" opacity=".2" r="26"/>
    <circle cx="32" cy="30" fill="#949494" r="26"/>
    <path d="M32 4A26 26 0 0 0 6 30a26 26 0 0 0 .018.486A26 26 0 0 1 32 5a26 26 0 0 1 25.975 25.496A26 26 0 0 0 58 30 26 26 0 0 0 32 4z" fill="#f4f4f7" opacity=".2"/>
    <path d="M8 63C13.535 16.78 48.813 7.681 58.455 3c-7.209 22.363-18.898 38.31-43.362 46.077 8.563-16.36 21.68-27.247 36.035-38.426-12.287 10.428-24.58 20.848-32.593 36.05C29.98 42.882 53.264 20.989 45.49 20.513c2.649-.286 5.807-2.231 8.731-13.144C45.306 10.637 19.002 22.779 8 63z" opacity=".1"/>
    <path d="M8 62C13.535 15.78 48.813 6.681 58.455 2c-7.209 22.363-18.898 38.31-43.362 46.077 8.563-16.36 21.68-27.247 36.035-38.426-12.287 10.428-24.58 20.848-32.593 36.05C29.98 41.882 53.264 19.989 45.49 19.513c2.649-.286 5.807-2.231 8.731-13.144C45.306 9.637 19.002 21.779 8 62z" fill="#17191e"/>
</svg>
